X: 102
T: Wandering Minstrel, The
C: Trad.
O: Cape Breton
S: John Campbell, Cape Breton on the Floor
Z: transcribed by Alan Snyder, 6/5/03
R: jig
M: 6/8
L: 1/8
K: D
B|:ADD BAF|Ade fdB|ADD BAF|GFG EFG|
ADD BAF|Ade fdB|AdB AFE|1 FDD DdB:|2 FDD D2B||
|:ABd ede|fdB AFA|B3 BAF|AFE EFA|
fbf ede|fdB AFA|BeB AFE|1FDD D2B:|2FDD D2g||
|:fdf afd|gbe gbe|fdf afd|ceA ceA|
fdf afd|gbe gbe|faf ede|1 fdd d2g:|2 fdd d2B||
